X: 12776
T: Fathom
R: reel
M: 4/4
K: Emajor
cd d c2 c cB|Bc c B2 G GF|FG fg e d2 B|G2 GG FG B z|
EG B e2 B g2|b2 ^a g2 B BB|g2 f B2 B BB|1 cd fg g z z g:|
[2 Bc c d2 BG z|G2 z2 z4|:z2 GG d2 de|z8|z2 GG d2 de|
z2 GG d2 de|z2 GG dB GF|z8|1 z2 d2 d3 B|cB G4 z2:|
[2 z4 z2 G2|c3 B3 cd|g3 f3 d/c/B|c3 B3 GF|(3 G2 B2 G2-G4||

